assets/icons/qvision/developer_board.svg

<svg xmlns="http://www.w3.org/2000/svg" height="24" viewBox="0 0 24 24" width="24"><path d="M22 9V7h-2V5c0-1.1-.9-2-2-2H4c-1.1 0-2 .9-2 2v14c0 1.1.9 2 2 2h14c1.1 0 2-.9 2-2v-2h2v-2h-2v-2h2v-2h-2V9h2zm-4 10H4V5h14v14zM6 13h5v4H6zm6-6h4v3h-4zM6 7h5v5H6zm6 4h4v6h-4z"/><path d="M0 0h24v24H0zm0 0h24v24H0z" fill="none"/></svg>

<svg width="24" height="24" viewBox="0 0 24 24" fill="none" xmlns="http://www.w3.org/2000/svg">
<g clip-path="url(#clip0_147_2946)">
<path d="M22 9V7H20V5C20 3.9 19.1 3 18 3H4C2.9 3 2 3.9 2 5V19C2 20.1 2.9 21 4 21H18C19.1 21 20 20.1 20 19V17H22V15H20V13H22V11H20V9H22ZM18 19H4V5H18V19ZM6 13H11V17H6V13ZM12 7H16V10H12V7ZM6 7H11V12H6V7ZM12 11H16V17H12V11Z" fill="#323232"/>
</g>
<defs>
<clipPath id="clip0_147_2946">
<rect width="24" height="24" fill="white"/>
</clipPath>
</defs>
</svg>
